X: 170
T: O domine Jesu Christe
N: Derived from Rue2015-O_domine_Jesu_Christe.krn
C: Pierre de la Rue
%%abc-version 2.0
%%abcx-abcm2ps-target-version 5.9.1 (29 Sep 2008)
%%abc-creator hum2abc beta
%%abcx-conversion-date 2019/02/17 08:01:17
%%abc-edited-by Jesse Rodin
%%abc-edited-by Chris Gage 01-04-2013
%%abcx-initial-encoding-date 2013/07/21/
%%humdrum-veritas 2582393461
%%humdrum-veritas-data 3034914571
%%linebreak <none>
%%barnumbers 0
L: 1/4
M: 2/1
Q: 1/2=120
%%staves [1 2 3 4]
V: 1 clef=treble
V: 2 clef=treble
V: 3 clef=treble-8
V: 4 clef=bass
K: C
[V:1] z8 | 
[V:2] z8 | 
[V:3] A4c4- | 
[V:4] z8 | 
[V:1] z8 | 
[V:2] z8 | 
[V:3] c2BAB2c2 | 
[V:4] E,8 | 
[V:1] z8 | 
[V:2] z8 | 
[V:3] d4c3B | 
[V:4] D,4F,4- | 
[V:1] z8 | 
[V:2] z8 | 
[V:3] A2GFG2A2 | 
[V:4] F,2E,D,E,2F,2 | 
[V:1] z8 | 
[V:2] D4F4- | 
[V:3] B4A4- | 
[V:4] G,4F,3E, | 
[V:1] z8 | 
[V:2] F2EDE2F2 | 
[V:3] A2B2A2d2- | 
[V:4] D,2C,B,,C,2D,2 | 
[V:1] z4A4 | 
[V:2] G4F4 | 
[V:3] d^c^c2d4 | 
[V:4] E,4D,4 | 
[V:1] c6BA | 
[V:2] F2E4F2 | 
[V:3] c3BA2GF | 
[V:4] A,,8 | 
[V:1] B2c2d4 | 
[V:2] E2A3^GG2 | 
[V:3] G2A2B4 | 
[V:4] z8 | 
[V:1] c3BA2GF | 
[V:2] A3GE2F2 | 
[V:3] A8 | 
[V:4] A,,4C,2D,2 | 
[V:1] G2A2B4- | 
[V:2] E2D4G2- | 
[V:3] z8 | 
[V:4] E,2F,2G,4 | 
[V:1] B2A4B2 | 
[V:2] G2FEF2D2 | 
[V:3] d6B2 | 
[V:4] D,8 | 
[V:1] A2d3^cc2 | 
[V:2] E2F2G2A2 | 
[V:3] c2d2e4 | 
[V:4] z4z2A,2 | 
[V:1] d8 | 
[V:2] F2G2D2G2 | 
[V:3] d8- | 
[V:4] _B,2A,G,F,2G,2 | 
[V:1] z8 | 
[V:2] F2G2A2_B2- | 
[V:3] d8 | 
[V:4] D,2G,2F,2G,2- | 
[V:1] z8 | 
[V:2] B2A3GG2 | 
[V:3] z8 | 
[V:4] G,F,G,A,_B,4 | 
[V:1] z2e2f2ed | 
[V:2] A8- | 
[V:3] z4z2e2 | 
[V:4] A,8 | 
[V:1] c2d2A2d2 | 
[V:2] A8 | 
[V:3] f2edc2d2 | 
[V:4] z8 | 
[V:1] c2B3AA2- | 
[V:2] z8 | 
[V:3] A2d3cc2 | 
[V:4] z8 | 
[V:1] A2c2d2e2 | 
[V:2] z8 | 
[V:3] d2A2d2c2 | 
[V:4] z2A,2_B,2A,G, | 
[V:1] f2e3dd2 | 
[V:2] z8 | 
[V:3] d2e2f4 | 
[V:4] F,2G,2D,4 | 
[V:1] e4A4- | 
[V:2] z4F4- | 
[V:3] e4c4- | 
[V:4] z4F,4- | 
[V:1] A2A2c4 | 
[V:2] F2F2E2F2 | 
[V:3] c2c2A4 | 
[V:4] F,2F,2A,4 | 
[V:1] _B4A4 | 
[V:2] G4F4- | 
[V:3] _B4d4- | 
[V:4] G,4D,4 | 
[V:1] _B2A4GF | 
[V:2] F2EDC2D2 | 
[V:3] d4A4 | 
[V:4] z2F,4E,D, | 
[V:1] G2F2A4- | 
[V:2] C2D4F2 | 
[V:3] z2A4A2 | 
[V:4] E,2D,2F,4 | 
[V:1] A2A2B4 | 
[V:2] E2F2G4 | 
[V:3] c4B4 | 
[V:4] A,4G,4 | 
[V:1] d8 | 
[V:2] F8 | 
[V:3] A8- | 
[V:4] D,8 | 
[V:1] c4z2c2 | 
[V:2] z2F2E2F2 | 
[V:3] A8 | 
[V:4] A,,8 | 
[V:1] B2c2d2e2 | 
[V:2] G2A2F2G2 | 
[V:3] z8 | 
[V:4] z8 | 
[V:1] c2d2B2c2 | 
[V:2] E2F2D2A2- | 
[V:3] z8 | 
[V:4] z8 | 
[V:1] BAd4^c2 | 
[V:2] A2GFE4 | 
[V:3] z4z2A2 | 
[V:4] z8 | 
[V:1] d4z4 | 
[V:2] D4z4 | 
[V:3] B4c4 | 
[V:4] z2D,2E,4 | 
[V:1] z8 | 
[V:2] z8 | 
[V:3] d6B2 | 
[V:4] F,4G,4 | 
[V:1] z8 | 
[V:2] z8 | 
[V:3] c2d4B2 | 
[V:4] E,2F,2G,4 | 
[V:1] z8 | 
[V:2] z8 | 
[V:3] c2d4B2 | 
[V:4] E,2F,2G,3F, | 
[V:1] z8 | 
[V:2] z8 | 
[V:3] c2d3^c^c2 | 
[V:4] E,2D,2E,4 | 
[V:1] z4c4 | 
[V:2] A6A2 | 
[V:3] d2f4ed | 
[V:4] D,4z2A,2 | 
[V:1] c4d4 | 
[V:2] G2c3BB2 | 
[V:3] e3fd4 | 
[V:4] C4G,4 | 
[V:1] e4A4- | 
[V:2] c4F4- | 
[V:3] c4d4 | 
[V:4] C,4z4 | 
[V:1] A4A4 | 
[V:2] F4A4 | 
[V:3] A8 | 
[V:4] F,4F,4 | 
[V:1] B4c4 | 
[V:2] G4E4 | 
[V:3] e8 | 
[V:4] G,4A,4 | 
[V:1] d3cBAA2- | 
[V:2] F8 | 
[V:3] d6c2 | 
[V:4] D,8 | 
[V:1] A2G2A2c2 | 
[V:2] E4z2A2 | 
[V:3] B4z2A2 | 
[V:4] E,4F,4 | 
[V:1] B2A2c2BA | 
[V:2] G2F2E3F | 
[V:3] B2c4d2 | 
[V:4] G,2A,4G,F, | 
[V:1] G2A2F4 | 
[V:2] G2F4ED | 
[V:3] e2f3cd2 | 
[V:4] E,2D,2A,2B,2 | 
[V:1] E8- | 
[V:2] C3DEFG2 | 
[V:3] e2c4B2 | 
[V:4] C2A,4G,2 | 
[V:1] E8 | 
[V:2] E2A4^G2 | 
[V:3] c2A2B4 | 
[V:4] A,4E,4 | 
[V:1] z4c4- | 
[V:2] A8- | 
[V:3] A8 | 
[V:4] z4A,4- | 
[V:1] c4c4- | 
[V:2] A8 | 
[V:3] z4c4- | 
[V:4] A,4A,4 | 
[V:1] c2BAc2d2 | 
[V:2] A4A4 | 
[V:3] c4A4 | 
[V:4] F,8 | 
[V:1] e6A2 | 
[V:2] G4E4 | 
[V:3] B4c4- | 
[V:4] E,4A,4- | 
[V:1] A8 | 
[V:2] F8 | 
[V:3] c2d2d4 | 
[V:4] A,2D,2D,4- | 
[V:1] f8 | 
[V:2] F6ED | 
[V:3] A8 | 
[V:4] D,4F,4- | 
[V:1] f4e4 | 
[V:2] C2B,2C2D2 | 
[V:3] z4c4- | 
[V:4] F,2G,2A,2B,2 | 
[V:1] e2d4B2 | 
[V:2] E2F2G4 | 
[V:3] c2B2d4 | 
[V:4] C2D2B,4 | 
[V:1] c8- | 
[V:2] A8 | 
[V:3] e2e2e2f2- | 
[V:4] A,6F,2 | 
[V:1] c8 | 
[V:2] z2G2A2A2- | 
[V:3] fee2f2ed | 
[V:4] C4F,4- | 
[V:1] z8 | 
[V:2] A2GFE4 | 
[V:3] c8 | 
[V:4] F,2E,D,C,4 | 
[V:1] z4z2e2 | 
[V:2] A8 | 
[V:3] z2A3Bc2 | 
[V:4] D,4A,,4 | 
[V:1] e2f3ee2 | 
[V:2] A4G4 | 
[V:3] A2d4c2 | 
[V:4] z8 | 
[V:1] f2edc4 | 
[V:2] F4F2E2- | 
[V:3] d2cBA4- | 
[V:4] z4A,,3B,, | 
[V:1] z2A3Bc2 | 
[V:2] EDD4C2 | 
[V:3] A4A4 | 
[V:4] C,2D,3C,A,,2 | 
[V:1] A2d4c2 | 
[V:2] D2F2E4 | 
[V:3] A8 | 
[V:4] D,4A,,4 | 
[V:1] A2B4A2- | 
[V:2] C2D2E2F2- | 
[V:3] z8 | 
[V:4] z8 | 
[V:1] AGFEF4 | 
[V:2] FEDCD4 | 
[V:3] z8 | 
[V:4] z8 | 
[V:1] E8 | 
[V:2] C4z4 | 
[V:3] z2A2c3d | 
[V:4] A,6A,2 | 
[V:1] z8 | 
[V:2] z8 | 
[V:3] e2f4ed | 
[V:4] A,4_B,4 | 
[V:1] z2E2G3A | 
[V:2] z4z2C2 | 
[V:3] c3de4 | 
[V:4] A,4E,4 | 
[V:1] B2c4BA | 
[V:2] B,2E3DD2 | 
[V:3] z8 | 
[V:4] E,4F,4 | 
[V:1] G4G4 | 
[V:2] E8- | 
[V:3] z2c2B2c2- | 
[V:4] E,8- | 
[V:1] G4G4 | 
[V:2] E8 | 
[V:3] c2BAB4 | 
[V:4] E,8 | 
[V:1] A4c4 | 
[V:2] z2A3GE2 | 
[V:3] A8 | 
[V:4] F,3G,A,4 | 
[V:1] d4f4 | 
[V:2] F2D2A4- | 
[V:3] z4d4 | 
[V:4] D,8 | 
[V:1] f2e4dc | 
[V:2] A2GFE2F2 | 
[V:3] c6A2 | 
[V:4] A,8 | 
[V:1] B2c2A2c2 | 
[V:2] G2A4F2 | 
[V:3] B2A2e2c2 | 
[V:4] G,2F,2A,4 | 
[V:1] B2c2A2c2 | 
[V:2] G2A4F2 | 
[V:3] d2A2e2c2 | 
[V:4] G,2F,2A,4 | 
[V:1] BAd4^c2 | 
[V:2] G2A3EA2 | 
[V:3] d2f2e4 | 
[V:4] G,2F,2A,4 | 
[V:1] d8 | 
[V:2] F2A4GF | 
[V:3] d2f4ed | 
[V:4] z2D,2F,2G,2 | 
[V:1] z4z2A2 | 
[V:2] E2F4ED | 
[V:3] c2d4cB | 
[V:4] A,2D,2F,3G, | 
[V:1] c3de2A2 | 
[V:2] C8 | 
[V:3] A2f2e2f2- | 
[V:4] A,8 | 
[V:1] c2d2e4 | 
[V:2] z2A3EA2 | 
[V:3] f2ed^cB^c2 | 
[V:4] A,8 | 
[V:1] f3ed2cB | 
[V:2] F2A4GF | 
[V:3] d8 | 
[V:4] z2D,2F,2G,2 | 
[V:1] c2d4cB | 
[V:2] E2F4ED | 
[V:3] z8 | 
[V:4] A,2D,2F,2G,2 | 
[V:1] c8- | 
[V:2] F4E4 | 
[V:3] z2A2c3d | 
[V:4] A,8- | 
[V:1] c8 | 
[V:2] A8 | 
[V:3] e2A2c2d2 | 
[V:4] A,8 | 
[V:1] c8- | 
[V:2] A8- | 
[V:3] e2f4ed | 
[V:4] A,8- | 
[V:1] !fermata!c8 | 
[V:2] !fermata!A8 | 
[V:3] !fermata!e8 | 
[V:4] !fermata!A,8 | 
[V:1] d8- | 
[V:2] z2D2F3G | 
[V:3] d8- | 
[V:4] D,8 | 
[V:1] d8- | 
[V:2] A2D2F2G2 | 
[V:3] d8- | 
[V:4] D,8- | 
[V:1] d8- | 
[V:2] A2_B4AG | 
[V:3] d8- | 
[V:4] D,8- | 
[V:1] d8 |]  
[V:2] A8 |]  
[V:3] d8 |]  
[V:4] D,8 |]  



